assets/mediaelement_js/bigplay.svg

<svg height="200" viewBox="0 0 100 200" width="100" xmlns="http://www.w3.org/2000/svg"><path d="m72.5 49.5-33.75 19.4856v-38.9712z" fill="#fff" opacity=".75"/><path d="m13 50.5c0-20.7109 16.7891-37.5 37.5-37.5s37.5 16.7891 37.5 37.5-16.7891 37.5-37.5 37.5-37.5-16.7891-37.5-37.5z" fill="none" opacity=".75" stroke="#fff" stroke-width="5"/><path d="m72.5 149.5-33.75 19.4856v-38.9712z" fill="#fff"/><path d="m13 150.5c0-20.7109 16.7891-37.5 37.5-37.5s37.5 16.7891 37.5 37.5c0 20.711-16.7891 37.5-37.5 37.5s-37.5-16.789-37.5-37.5z" fill="none" stroke="#fff" stroke-width="5"/></svg>

<?xml version="1.0" standalone="no"?>
<svg id="bigplay" viewBox="0 0 100 200" style="background-color:#ffffff00" version="1.1"
	xmlns="http://www.w3.org/2000/svg" xmlns:xlink="http://www.w3.org/1999/xlink" xml:space="preserve"
	x="0px" y="0px" width="100px" height="200px"
>
	<g id="dark">
		<path id="Polygon"  d="M 72.5 49.5 L 38.75 68.9856 L 38.75 30.0144 L 72.5 49.5 Z" fill="#ffffff" opacity="0.75" />
		<path id="Ellipse" d="M 13 50.5 C 13 29.7891 29.7891 13 50.5 13 C 71.2109 13 88 29.7891 88 50.5 C 88 71.2109 71.2109 88 50.5 88 C 29.7891 88 13 71.2109 13 50.5 Z" stroke="#ffffff" stroke-width="5" fill="none" opacity="0.75"/>
	</g>
	<g id="light">
		<path id="Polygon2"  d="M 72.5 149.5 L 38.75 168.9856 L 38.75 130.0144 L 72.5 149.5 Z" fill="#ffffff" opacity="1.0" />
		<path id="Ellipse2" d="M 13 150.5 C 13 129.7891 29.7891 113 50.5 113 C 71.2109 113 88 129.7891 88 150.5 C 88 171.211 71.2109 188 50.5 188 C 29.7891 188 13 171.211 13 150.5 Z" stroke="#ffffff" stroke-width="5" fill="none" opacity="1.0"/>
	</g>
</svg>
